svgs/sharp-regular/file-plus-minus.svg

<svg xmlns="http://www.w3.org/2000/svg" viewBox="0 0 384 512"><!--! Font Awesome Pro 6.6.0 by @fontawesome - https://fontawesome.com License - https://fontawesome.com/license (Commercial License) Copyright 2024 Fonticons, Inc. --><path d="M48 464L48 48l176 0 0 112 112 0 0 304L48 464zM256 0L48 0 0 0 0 48 0 464l0 48 48 0 288 0 48 0 0-48 0-336L256 0zM216 200l0-24-48 0 0 24 0 40-40 0-24 0 0 48 24 0 40 0 0 40 0 24 48 0 0-24 0-40 40 0 24 0 0-48-24 0-40 0 0-40zM128 384l-24 0 0 48 24 0 128 0 24 0 0-48-24 0-128 0z"/></svg>

<svg xmlns="http://www.w3.org/2000/svg" viewBox="0 0 384 512"><!--! Font Awesome Pro 6.4.2 by @fontawesome - https://fontawesome.com License - https://fontawesome.com/license (Commercial License) Copyright 2023 Fonticons, Inc. --><path d="M48 464V48H224V160H336V464H48zM256 0H48 0V48 464v48H48 336h48V464 128L256 0zM216 200V176H168v24 40H128 104v48h24 40v40 24h48V328 288h40 24V240H256 216V200zM128 384H104v48h24H256h24V384H256 128z"/></svg>
